X:1
T:DAISY BELL.
T:DAISY BELL.
T:Written and Composed by HARRY DACRE.
T:~~~~~~~~~~~~~~
T:CHORUS.
T:Copyright 1892, by T. B. Harms &amp; Co.,
T:Copyright 1892, by T. B. Harms &amp; Co.,
T:Copyright 1892, by T. B. Harms &amp; Co.,
T:Copyright 1892, by T. B. Harms &amp; Co.,
C:Written and Composed by HARRY DACRE.
Z:Copyright 1892, by T. B. Harms & Co.,
%%score ( 1 2 ) { ( 3 5 ) | ( 4 6 ) }
L:1/8
Q:1/4=170
M:3/4
K:G
V:1 treble nm="Voice"
V:2 treble 
V:3 treble nm="Piano"
V:5 treble 
V:4 bass 
V:6 bass 
V:1
"^Tempo di Valse." z6 | z6 | z6 | z6 | z6 | z6 | z6 | z4 | d2 ^c2 d2 | B2 A2 G2 | A4 F2 | D4 z2 | %12
w: ||||||||1.There is a|flow- er with-|in my|heart,|
w: ||||||||2.We will go|"tan- dem" as|man and|wife,|
w: ||||||||3.I will stand|by you in|"wheel" or|woe,|
 A6 | D6 | d6 | B4 z2 | d2 ^c2 d2 | B2 A2 G2 | A4 F2 | D4 z2 | G2 d2 G2 | (F2 D2) A2 | G6- | %23
w: Dai-|sy,|Dai-|sy!|Plant- ed one|day by a|glanc- ing|dart,|Plant- ed by|Dai- * sy|Bell!.....|
w: Dai-|sy,|Dai-|sy!|"Ped'- ling" a-|way down the|road of|life,|I and my|Dai- * sy|Bell!.....|
w: Dai-|sy,|Dai-|sy!|You'll be the|bell(e) which I'll|ring, you|know!|Sweet lit- tle|Dai- * sy|Bell!.....|
 G2 z2 z2 | B2 c2 B2 | A2 G2 F2 | B4 G2 | E4 z2 |"_Sometimes" d2 c2 B2 | A4 ^A2 | B6- | B2 z2 z2 | %32
w: |Wheth- er she|loves me or|loves me|not|* * it's|hard to|tell;.....||
w: |When the road's|dark we can|both des-|pise|P'lice- men and|"lamps" as|well;.....||
w: |You'll take the|"lead" in each|"trip" we|take,|Then, if I|don't do|well,.....||
 B2 c2 B2 | A2 G2 F2 | B4 G2 | E4 B2 | A2 e2 ^c2 | B4 A2 | %38
w: Yet I am|long- ing to|share the|lot Of|beau- ti- ful|Dai- sy|
w: There are "bright|lights" in the|daz- zling|eyes Of|beau- ti- ful|Dai- sy|
w: I will per-|mit you to|use the|brake, My|beau- ti- ful|Dai- sy|
[Q:1/4=175]"^rit." d6-[Q:1/4=170][Q:1/4=165] |[Q:1/4=160] d6 || %40
w: Bell!.....||
w: Bell!.....||
w: Bell!.....||
[M:3/4][Q:1/4=180]"^A little faster." d6 | B6 | G6 | D4 z2 | E2 F2 G2 | E4 G2 | D6- | D4 z2 | A6 | %49
w: Dai-|sy,|Dai-|sy,|Give me your|an- swer,|do!.....||I'm|
w: |||||||||
w: |||||||||
 d6 | B6 | G4 z2 | E2 F2 G2 | A4 B2 | A6- | A2 z2 B2 | c2 B2 A2 | d4 B2 | (3ABA G4- | G4 A2 | %60
w: half|cra-|zy,|All for the|love of|you!.....|* It|won't be a|styl- ish|mar- * * riage,.....|* I|
w: |||||||||||
w: |||||||||||
 B4 G2 | E4 G2 | E2 D4- | D2 z2 D2 | G4 B2 | !^!A2 z2 z2 | G4 B2 | !^!A2 z2 B c | d2 B2 G2 | %69
w: can't af-|ford a|car- riage,.....|* But|you'll look|sweet|On the|seat Of a|bi- cy- cle|
w: |||||||||
w: |||||||||
 A4 D2 | G6- | G2 z2 z2 |] %72
w: built for|two!.....||
w: |||
w: |||
V:2
 x6 | x6 | x6 | x6 | x6 | x6 | x6 | x4 | x6 | x6 | x6 | x6 | x6 | x6 | x6 | x6 | x6 | x6 | x6 | %19
 x6 | x6 | x6 | x6 | x6 | x6 | x6 | x6 | x6 | x6 | x6 | x6 | x6 | x6 | x6 | x6 | x6 | x6 | x6 | %38
 x6 | x6 ||[M:3/4] x6 | x6 | x6 | x6 | x6 | x6 | x6 | x6 | x6 | x6 | x6 | x6 | x6 | x6 | x6 | x6 | %56
 x6 | x6 | A2 x4 | x6 | x6 | x6 | x6 | x6 | x6 | x6 | x6 | x6 | x6 | x6 | x6 | x6 |] %72
V:3
!f! [dd']2 [^c^c']2 [dd']2 | [Bb]2 [Aa]2 [Gg]2 | [Aa]4 f2 | d4 d'2 |!<(! (bdefga!<)! | %5
!>(! ^abe'd'bg)!>)! | !>![c=a]4 !>![cd]2 | !>![Bg]4 | z2 [B,DG]2 [B,DG]2 | z2 [B,DG]2 [B,DG]2 | %10
 z2 [CDA]2 [CDA]2 | z2 [CDF]2 [CDF]2 | z2 [CDA]2 [CDA]2 | z2 [CDF]2 [CDF]2 | z2 [B,DG]2 [B,DG]2 | %15
 z2 [B,DG]2 [B,DG]2 | z2 [B,DG]2 [B,DG]2 | z2 [B,DG]2 [B,DG]2 | z2 [CDA]2 [CDA]2 | %19
 z2 [CDF]2 [CDF]2 | z2 [B,DG]2 [B,DG]2 | z2 [CDF]2 [CDF]2 | z2 [B,DG]2 [B,DG]2 | [B,DG]2 z2 z2 | %24
 (B2 c2 B2) | (A2 G2 F2) | (B4 G2) | E4 z2 | (d2 c2 B2) | (A4 ^A2) | B2 (^ABdg) | b2 z2 z2 | %32
 (B2 c2 B2) | (A2 G2 F2) | (B4 G2) | E2 z2 B2 | (A2 e2 ^c2) | (B4 A2) |!<(! d6-!<)! | d6 || %40
[M:3/4]!mf! (d6 | B6 | G6 | D4) z2 | (E2 F2 G2 | E4 G2) | !^!D6- | D4 z2 | A6 | d6 | (B6 | G6) | %52
!<(! (E2 F2 G2 | A4 B2)!<)! | A6- | A2 z2 B2 | c2 B2 A2 | d4 B2 | (3(ABA) G4- | G4 A2 | (B4 G2 | %61
 E4 G2) | E2 D4- | D2 z2 D2 |!f! (G4 B2) | .[DFA]2 z2 z2 | (G4 B2) | .[DFA]2 z2 Bc | d2 B2 G2 | %69
 A4 D2 | G6- | [B,DG]2 z2 z2 |] %72
V:4
 G,2 [B,D]2 [B,D]2 | G,2 [B,D]2 [B,D]2 | F,2 [A,CD]2 [A,CD]2 | D,2 [F,CD]2 [F,CD]2 | %4
 G,2 [B,D]2 [B,D]2 | G,2 [B,D]2 [B,D]2 | !>![D,F,A,D]4 !>![D,F,A,D]2 | !>![G,B,D]4 | %8
 [G,,G,]2 z2 z2 | [G,,G,]2 z2 z2 | [F,,F,]2 z2 z2 | [D,,D,]2 z2 z2 | [F,,F,]2 z2 z2 | %13
 [D,,D,]2 z2 z2 | [G,,G,]2 z2 z2 | [D,,D,]2 z2 z2 | [G,,G,]2 z2 z2 | [G,,G,]2 z2 z2 | %18
 [F,,F,]2 z2 z2 | [D,,D,]2 z2 z2 | [G,,G,]2 z2 z2 | [D,,D,]2 z2 z2 | [G,,G,]2 D,2 B,,2 | %23
 G,,2 z2 z2 | E,2 [G,B,E]2 [G,B,E]2 | B,,2 [A,B,^D]2 [A,B,D]2 | E,2 [G,B,E]2 [G,B,E]2 | %27
 E,2 [G,B,]2 [G,B,]2 | F,2 [A,CD]2 [A,CD]2 | D,2 [F,CD]2 [F,CD]2 | G,2 [B,D]2 [B,D]2 | %31
 G,2 [B,D]2 [B,D]2 | E,2 [G,B,E]2 [G,B,E]2 | B,,2 [A,B,^D]2 [A,B,D]2 | E,2 [G,B,E]2 [G,B,E]2 | %35
 E,2 [G,B,E]2 [G,B,E]2 | A,,2 [G,A,^C]2 [G,A,C]2 | A,,2 [G,A,^C]2 [G,A,C]2 |"^rit." z2 D2 D2 | %39
 D6 ||[M:3/4] G,6 | D,6 | B,,6 | G,,6 | C,2 [E,G,C]2 [E,G,C]2 | C,2 [E,G,C]2 [E,G,C]2 | %46
 G,,2 D,2 B,,2 | A,,2 z2 z2 | F,2 [A,CD]2 [A,CD]2 | D,2 [F,CD]2 [F,CD]2 | (G,6 | E,6) | %52
 A,,2 [G,A,^C]2 [G,A,C]2 | A,,2 [G,A,^C]2 [G,A,C]2 | D,2 [F,A,D]2 [F,A,D]2 | %55
 D,2 [F,A,D]2 [F,A,D]2 | F,2 [A,CD]2 [A,CD]2 | D,2 [F,CD]2 [F,CD]2 | G,2 [B,D]2 [B,D]2 | %59
 G,2 [B,D]2 [B,D]2 | E,2 [G,B,E]2 [G,B,E]2 | C,2 [E,G,C]2 [E,G,C]2 | G,,2 [D,G,B,]2 [D,G,B,]2 | %63
 F,,2 [D,A,C]2 [D,A,C]2 | G,,2 [D,G,B,]2 [D,G,B,]2 | .[D,A,C]2 z2 z2 | G,,2 [D,G,B,]2 [D,G,B,]2 | %67
 .[D,A,C]2 z2 z2 | G,,2 [D,G,B,]2 [D,G,B,]2 | D,,2 [D,F,C]2 [D,F,C]2 | G,2 D,2 B,,2 | G,,2 z2 z2 |] %72
V:5
 x6 | x6 | x6 | x6 | x6 | x6 | x6 | x4 | x6 | x6 | x6 | x6 | x6 | x6 | x6 | x6 | x6 | x6 | x6 | %19
 x6 | x6 | x6 | x6 | x6 | x6 | x6 | x6 | x6 | x6 | x6 | x6 | x6 | x6 | x6 | x6 | x6 | x6 | x6 | %38
 z2 [FA]2 [GB]2 | [A=c]6 ||[M:3/4] z2 [DGB]2 [DGB]2 | z2 [B,DG]2 [B,DG]2 | z2 [G,D]2 [G,D]2 | %43
 z2 [G,B,]2 [G,B,]2 | x6 | x6 | z2 [G,B,]2 [G,B,]2 | z2 [G,B,]2 [G,B,]2 | x6 | x6 | %50
 z2 [DG]2 [DG]2 | z2 [B,E]2 [B,E]2 | x6 | x6 | x6 | x6 | x6 | x6 | x6 | x6 | x6 | x6 | x6 | x6 | %64
 x6 | x6 | x6 | x6 | x6 | x6 | z2 [B,D]2 [B,D]2 | x6 |] %72
V:6
 x6 | x6 | x6 | x6 | x6 | x6 | x6 | x4 | x6 | x6 | x6 | x6 | x6 | x6 | x6 | x6 | x6 | x6 | x6 | %19
 x6 | x6 | x6 | x6 | x6 | x6 | x6 | x6 | x6 | x6 | x6 | x6 | x6 | x6 | x6 | x6 | x6 | x6 | x6 | %38
 D,6- | D,6 ||[M:3/4] x6 | x6 | x6 | x6 | x6 | x6 | x6 | x6 | x6 | x6 | x6 | x6 | x6 | x6 | x6 | %55
 x6 | x6 | x6 | x6 | x6 | x6 | x6 | x6 | x6 | x6 | x6 | x6 | x6 | x6 | x6 | x6 | x6 |] %72

